X:1
T:Title
%%score 1 { 2 | 3 }
L:1/8
Q:1/4=98
M:3/4
K:D
V:1 treble nm="Grand Piano, Soprano"
V:2 bass nm="Choir Pad, All to Christ I Owe"
V:3 bass 
V:1
 DF [FA]3 [GB] | [FA][DF] D4 | D2 [CE]3 [CE] | D[CE] [DF]4 | DF [FA]3 [GB] | [FA][DF] D4 | %6
w: By~Asa~Hull * * *||||||
 D2 [DF]3 [DG] | [DF][CE] D4- | D2 [FA]3 [GB] | [FA][DF] [Fd]4- | [Fd]2 [FA]3 [GB] | %11
w: |||||
 [FA][DF] [CE]4- | [CE]2 [FA]3 [GB] | [FA][DF] [Fd][Ac] [GB]2 | [Ed]2 [DF]3 [EG] | [DF][CE] D4- | %16
w: |||||
 D4 z2 |] %17
w: |
V:2
 F,A, D3 D | DA, F,4 | F,2 A,3 G, | F,A, A,4 | F,A, D3 D | DA, F,4 | F,2 A,3 B, | A,G, F,4- | %8
 F,2[K:treble] D3 D | DA, A,4- | A,2 D3 D | D[K:bass]A, A,4- | A,2 D3 D | DA, A,D D2 | B,2 A,3 A, | %15
 A,G, F,4- | F,4 z2 |] %17
V:3
 D,2 D,3 D, | D,D, D,4 | D,2 A,,3 A,, | B,,A,, D,4 | D,2 D,3 D, | D,D, D,4 | D,2 D,3 G,, | %7
 A,,A,, D,4- | D,2 D,3 D, | D,D, D,4- | D,2 D,3 D, | D,F, z2 z2 | z2 D,3 D, | D,D, D,F, G,2 | %14
 G,2 z2 z2 | A,,A,, D,4- | D,4 z2 |] %17

